svg/animation1_frame1.svg

<svg xmlns="http://www.w3.org/2000/svg" width="27" height="24" fill="none"><path fill="#000" d="M6 0H3v3h3zM9 0H6v3h3zM3 3H0v3h3zM3 6H0v3h3zM3 9H0v3h3zM12 0H9v3h3zM6 12H3v3h3zM9 15H6v3h3zM12 18H9v3h3zM21 0h3v3h-3zM18 0h3v3h-3zM24 3h3v3h-3zM24 6h3v3h-3zM24 9h3v3h-3zM15 0h3v3h-3zM21 12h3v3h-3zM18 15h3v3h-3zM15 18h3v3h-3zM15 3h-3v3h3zM15 21h-3v3h3z"/></svg>

<svg width="27" height="24" viewBox="0 0 27 24" fill="none" xmlns="http://www.w3.org/2000/svg">
<symbol id="heart">
<path d="M6 0H3V3H6V0Z" fill="black"/>
<path d="M9 0H6V3H9V0Z" fill="black"/>
<path d="M3 3H0V6H3V3Z" fill="black"/>
<path d="M3 6H0V9H3V6Z" fill="black"/>
<path d="M3 9H0V12H3V9Z" fill="black"/>
<path d="M12 0H9V3H12V0Z" fill="black"/>
<path d="M6 12H3V15H6V12Z" fill="black"/>
<path d="M9 15H6V18H9V15Z" fill="black"/>
<path d="M12 18H9V21H12V18Z" fill="black"/>
<path d="M21 0H24V3H21V0Z" fill="black"/>
<path d="M18 0H21V3H18V0Z" fill="black"/>
<path d="M24 3H27V6H24V3Z" fill="black"/>
<path d="M24 6H27V9H24V6Z" fill="black"/>
<path d="M24 9H27V12H24V9Z" fill="black"/>
<path d="M15 0H18V3H15V0Z" fill="black"/>
<path d="M21 12H24V15H21V12Z" fill="black"/>
<path d="M18 15H21V18H18V15Z" fill="black"/>
<path d="M15 18H18V21H15V18Z" fill="black"/>
<path d="M15 3H12V6H15V3Z" fill="black"/>
<path d="M15 21H12V24H15V21Z" fill="black"/>
</symbol>
</svg>
